svgs/sharp-duotone-thin/database.svg

<svg xmlns="http://www.w3.org/2000/svg" viewBox="0 0 448 512"><!--! Font Awesome Pro 7.1.0 by @fontawesome - https://fontawesome.com License - https://fontawesome.com/license (Commercial License) Copyright 2025 Fonticons, Inc. --><path opacity=".4" fill="currentColor" d="M16 88.9L16 171.5 130.2 240 317.8 240 432 171.5 432 88.9 315.4 16 132.6 16 16 88.9zm0 101.3l0 109.3 114.2 68.5 187.6 0 114.2-68.5 0-109.3-107.9 64.7-1.9 1.1-196.4 0-1.9-1.1-107.9-64.7zm0 128l0 105 116.6 72.9 182.8 0 116.6-72.9 0-105-107.9 64.7-1.9 1.1-196.4 0-1.9-1.1-107.9-64.7z"/><path fill="currentColor" d="M16 190.1l107.9 64.7 1.9 1.1 196.4 0 1.9-1.1 107.9-64.7 0 109.3-114.2 68.5-187.6 0-114.2-68.5 0-109.3zm0-18.7L16 88.9 132.6 16 315.4 16 432 88.9 432 171.5 317.8 240 130.2 240 16 171.5zm0 251.7l0-105 107.9 64.7 1.9 1.1 196.4 0 1.9-1.1 107.9-64.7 0 105-116.6 72.9-182.8 0-116.6-72.9zM128 0l-128 80 0 352 128 80 192 0 128-80 0-352-128-80-192 0z"/></svg>

<svg xmlns="http://www.w3.org/2000/svg" viewBox="0 0 448 512"><!--! Font Awesome Pro 6.7.2 by @fontawesome - https://fontawesome.com License - https://fontawesome.com/license (Commercial License) Copyright 2024 Fonticons, Inc. --><defs><style>.fa-secondary{opacity:.4}</style></defs><path class="fa-secondary" d="M16 88.9l0 82.6L130.2 240l187.6 0L432 171.5l0-82.6L315.4 16 132.6 16 16 88.9zm0 101.3l0 109.3L130.2 368l187.6 0L432 299.5l0-109.3L324.1 254.9l-1.9 1.1-2.2 0-192 0-2.2 0-1.9-1.1L16 190.1zm0 128l0 105L132.6 496l182.8 0L432 423.1l0-105L324.1 382.9l-1.9 1.1-2.2 0-192 0-2.2 0-1.9-1.1L16 318.1z"/><path class="fa-primary" d="M16 190.1l107.9 64.7 1.9 1.1 2.2 0 192 0 2.2 0 1.9-1.1L432 190.1l0 109.3L317.8 368l-187.6 0L16 299.5l0-109.3zm0-18.7l0-82.6L132.6 16l182.8 0L432 88.9l0 82.6L317.8 240l-187.6 0L16 171.5zm0 251.7l0-105 107.9 64.7 1.9 1.1 2.2 0 192 0 2.2 0 1.9-1.1L432 318.1l0 105L315.4 496l-182.8 0L16 423.1zM128 0L0 80 0 432l128 80 192 0 128-80 0-352L320 0 128 0z"/></svg>
